img/card-link.svg

<svg width="18" height="20" viewBox="0 0 18 20" fill="none" xmlns="http://www.w3.org/2000/svg">
<path d="M16 17.7778H2V2.22222H9V0H2C0.89 0 0 1 0 2.22222V17.7778C0 19 0.89 20 2 20H16C17.1 20 18 19 18 17.7778V10H16V17.7778ZM11 0V2.22222H14.59L4.76 13.1444L6.17 14.7111L16 3.78889V7.77778H18V0H11Z" fill="#05051E"/>
</svg>

<svg width="18" height="20" fill="none" xmlns="http://www.w3.org/2000/svg"><path d="M16 17.778H2V2.222h7V0H2C.89 0 0 1 0 2.222v15.556C0 19 .89 20 2 20h14c1.1 0 2-1 2-2.222V10h-2v7.778ZM11 0v2.222h3.59L4.76 13.144l1.41 1.567L16 3.79v3.989h2V0h-7Z" fill="#05051E"/></svg>
